public/static/icons/editor/inline_italic.svg

<svg height="24" viewBox="0 0 24 24" width="24" xmlns="http://www.w3.org/2000/svg"><path d="m14.9989353 22h-11.09020053l.45454517-1.7258518c.27343702 0 .7279822-.0923303 1.18252874-.0923303.54687542 0 .81676149-.0923288 1.09019851-.1811081.36576726-.1811068.63565332-.3657659.82031243-.5468741.18110678-.273437.36221493-.543323.45454517-.9090903l3.27059691-12.8160524c.0923288-.36576726.0923288-.63920428 0-.82031243-.0887779-.27343702-.2734371-.45454517-.5433231-.63565333-.1846591-.09232886-.5468754-.18110815-.90909037-.27343702-.45454517-.08877791-.90909034-.18110815-1.18252874-.18110815l.45454518-1.81818207h11.09020053l-.4545451 1.81818207c-.2734371 0-1.0014206.09233024-1.4559658.09233024-.4545452.08877791-.8167615.08877791-1.0901985.18110678-.3622163.08877929-.7279822.27343839-.9090904.54332446-.1811081.27343702-.3622163.54687404-.3622163.90909035l-3.2741478 12.8196033c-.0887779.3622163-.0887779.6356534 0 .9090904.0923289.273437.273437.4545452.5468741.5468754.1811081.0887779.4545451.1811068.9090903.2698861.4545452.0923288 1.1825287.0923288 1.4524162.1846591z" fill-rule="evenodd"/></svg>

<svg xmlns="http://www.w3.org/2000/svg" width="24" height="24" viewBox="0 0 24 24">
  <path fill-rule="evenodd" d="M14.9989353,22 L3.90873477,22 L4.36327994,20.2741482 C4.63671696,20.2741482 5.09126214,20.1818179 5.54580868,20.1818179 C6.0926841,20.1818179 6.36257017,20.0894891 6.63600719,20.0007098 C7.00177445,19.819603 7.27166051,19.6349439 7.45631962,19.4538357 C7.6374264,19.1803987 7.81853455,18.9105127 7.91086479,18.5447454 L11.1814617,5.728693 C11.2737905,5.36292574 11.2737905,5.08948872 11.1814617,4.90838057 C11.0926838,4.63494355 10.9080246,4.4538354 10.6381386,4.27272724 C10.4534795,4.18039838 10.0912632,4.09161909 9.72904823,3.99929022 C9.27450306,3.91051231 8.81995789,3.81818207 8.54651949,3.81818207 L9.00106467,2 L20.0912652,2 L19.6367201,3.81818207 C19.363283,3.81818207 18.6352995,3.91051231 18.1807543,3.91051231 C17.7262091,3.99929022 17.3639928,3.99929022 17.0905558,4.09161909 C16.7283395,4.18039838 16.3625736,4.36505748 16.1814654,4.63494355 C16.0003573,4.90838057 15.8192491,5.18181759 15.8192491,5.5440339 L12.5451013,18.3636372 C12.4563234,18.7258535 12.4563234,18.9992906 12.5451013,19.2727276 C12.6374302,19.5461646 12.8185383,19.7272728 13.0919754,19.819603 C13.2730835,19.9083809 13.5465205,20.0007098 14.0010657,20.0894891 C14.4556109,20.1818179 15.1835944,20.1818179 15.4534819,20.2741482 L14.9989353,22 Z"/>
</svg>
